material/.icons/material/star-three-points-outline.svg

<svg xmlns="http://www.w3.org/2000/svg" viewBox="0 0 24 24"><path d="M12 9.5l1.2 4 2.8 3-4-.9-4.1.9 2.8-3 1.3-4m0-6.9l-3 9.8-7 7.5 10-2.3L22 20l-7-7.5-3-9.9z"/></svg>

<?xml version="1.0" encoding="UTF-8"?><!DOCTYPE svg PUBLIC "-//W3C//DTD SVG 1.1//EN" "http://www.w3.org/Graphics/SVG/1.1/DTD/svg11.dtd"><svg xmlns="http://www.w3.org/2000/svg" xmlns:xlink="http://www.w3.org/1999/xlink" version="1.1" id="mdi-star-three-points-outline" width="24" height="24" viewBox="0 0 24 24"><path d="M12,9.5L13.2,13.5L16,16.5L12,15.6L7.9,16.5L10.7,13.5L12,9.5M12,2.6L9,12.4L2,19.9L12,17.6L22,20L15,12.5L12,2.6Z" /></svg>
